stablepay.svg

<svg width="116" height="59" viewBox="0 0 116 59" fill="none" xmlns="http://www.w3.org/2000/svg">
<path d="M4.25351 34.993C4.25351 34.993 9.35765 36.5384 12.2642 34.993C3.61549 31.3502 0.212734 24.9477 0.212734 19.6491C0.212734 11.2596 7.16004 4.96747 18.5026 10.4869C18.5026 10.4869 19.7077 3.97398 21.9762 1.52588e-05L23.9612 0.551955L21.5509 13.0258L19.3533 14.5712C8.86142 10.3765 3.6155 12.4738 3.6155 19.6491C3.6155 28.0385 15.4543 29.4736 15.4543 35.2137C15.4543 38.7462 10.6337 41.0643 3.68639 37.9734L4.25351 34.993ZM2.33946 45.3694L4.53708 43.7136C14.6036 46.8045 20.2748 41.6162 20.2748 35.5449C20.2748 30.7982 16.5885 25.3892 8.86142 23.1815L9.49944 20.201C18.7152 22.188 24.3865 28.1489 24.3865 35.2137C24.3865 46.0318 15.8796 50.4473 5.38777 47.4668C5.38777 47.4668 4.53708 51.9927 1.98501 58.064L6.10352e-05 57.5121L2.33946 45.3694Z" fill="white"/>
<path fill-rule="evenodd" clip-rule="evenodd" d="M40.2072 42.0768C40.2072 43.5881 39.7491 44.8192 38.8167 45.7702C37.9007 46.7212 36.7392 47.1966 35.3325 47.1966C34.58 47.1966 33.7457 47.048 32.8624 46.7509C31.9791 46.4537 31.2429 46.0589 30.6704 45.5664L30.6377 44.8532C30.6377 43.4438 30.7522 42.1022 30.9649 40.8286H32.3716L33.3368 44.3947C34.1547 44.8872 35.1034 45.1334 36.1504 45.1334C36.8865 44.6919 37.23 43.9787 37.23 42.9938C37.23 42.0937 36.821 41.3381 35.9541 40.7267L33.0096 38.7909C31.4556 37.6361 30.6868 36.1842 30.6868 34.4352C30.6868 32.9578 31.1612 31.7521 32.0936 30.8181C33.0423 29.8842 34.2528 29.4172 35.725 29.4172C37.0337 29.4172 38.326 29.7228 39.6183 30.3342C39.6183 32.1342 39.5038 33.688 39.2747 34.9955H37.7044L37.1482 32.1427C36.3794 31.6332 35.4633 31.3955 34.4164 31.4295C33.8112 31.9219 33.5004 32.6097 33.5004 33.4927C33.5004 34.0021 33.6803 34.4649 34.0238 34.8809C34.3673 35.297 35.0871 35.8191 36.1504 36.4475C37.2136 37.0758 37.9988 37.6149 38.5059 38.0649C39.013 38.5149 39.422 39.0668 39.7328 39.7206C40.0436 40.3744 40.2072 41.1598 40.2072 42.0768Z" fill="white"/>
<path fill-rule="evenodd" clip-rule="evenodd" d="M45.5398 44.2163C45.8996 44.2163 46.4558 44.1059 47.1919 43.8851L47.4046 45.1332L44.3783 47.0946C43.8222 47.1286 43.2823 46.8823 42.7752 46.3559C42.2681 45.8295 42.0064 45.2351 41.99 44.5729V37.2115L40.616 37.2369L40.5342 35.9124C41.0413 35.4539 41.5647 35.0463 42.1209 34.6897L43.1024 31.3784H44.4438L44.7709 34.6897H47.47L47.5027 35.785L46.5376 37.2624H44.8364V43.0445C44.8364 43.4861 44.8854 43.7917 44.9999 43.9615C45.0981 44.1314 45.278 44.2163 45.5398 44.2163Z" fill="white"/>
<path d="M58.1847 45.4645L55.7801 47.0947C55.4693 47.0777 55.1421 46.8952 54.8149 46.547C54.4714 46.1989 54.1933 45.7702 53.997 45.2607L51.8705 47.0183L51.2489 47.0692C50.431 47.0692 49.7439 46.7551 49.2205 46.1268C48.6807 45.4985 48.4026 44.7428 48.4026 43.8598C48.4026 42.6371 48.926 41.6692 49.9402 40.9559L53.6862 40.8286V38.5616C53.6862 37.2031 53.3754 36.337 52.7702 35.9634C52.1649 36.0144 51.6742 36.1248 51.298 36.2946L50.9381 39.0455L49.2859 39.122C49.0078 38.188 48.8606 37.1606 48.8606 36.0399L48.877 35.5304C49.5967 35.1229 50.4637 34.762 51.4779 34.4479C52.4757 34.1337 53.2446 33.9766 53.768 33.9766C54.2588 33.9766 54.7332 34.1464 55.1912 34.4861C55.6492 34.8257 56.0254 35.2672 56.3199 35.8106C56.4671 36.1333 56.5325 36.7785 56.5489 37.7465V43.8598C56.5489 44.2673 56.7125 44.4711 57.0396 44.4711L58.0048 44.3182L58.1847 45.4645ZM51.6742 44.8022C52.1977 44.7852 52.8683 44.573 53.6862 44.1654V42.3314L53.1955 42.306C51.9032 42.306 51.2489 42.7645 51.2489 43.6814C51.2489 44.1399 51.3961 44.5135 51.6742 44.8022Z" fill="white"/>
<path d="M64.3516 34.2569L65.055 34.1805C66.1183 34.1805 66.9853 34.7451 67.6723 35.8744C68.343 37.0037 68.6865 38.4174 68.6865 40.1155C68.6865 42.1702 68.1794 43.8599 67.1489 45.1844C66.1347 46.509 64.8097 47.1712 63.1902 47.1712C61.9961 47.1712 60.7038 46.8231 59.3134 46.1269V30.2578L57.8738 30.054L57.7266 28.8314C58.8226 28.288 59.984 27.9908 61.2272 27.9399V27.9653L62.176 29.0861V36.2183L64.3516 34.2569ZM64.368 44.9806C64.7769 44.5561 65.1205 43.9618 65.3658 43.1976C65.5948 42.4334 65.7257 41.6353 65.7257 40.8032C65.7257 39.7334 65.5294 38.8207 65.1368 38.065C64.7606 37.3093 64.2535 36.9315 63.6155 36.9315C63.2066 36.9315 62.7322 37.1268 62.176 37.5173V44.5986C62.634 44.8872 63.1739 45.0316 63.7627 45.0316L64.368 44.9806Z" fill="white"/>
<path fill-rule="evenodd" clip-rule="evenodd" d="M73.1849 44.675C73.7902 44.9297 74.2809 45.1844 74.6081 45.4391L74.5263 46.6873H68.8991L68.85 45.8212C69.2426 45.5325 69.7334 45.2523 70.3386 44.9806V30.2578L68.8664 30.054L68.7192 28.8314C69.8479 28.271 71.0093 27.9738 72.2198 27.9399L73.1849 29.0606V44.675Z" fill="white"/>
<path d="M82.6073 40.625L77.6017 40.5486C77.6508 41.8052 77.9452 42.7816 78.5014 43.4778C79.0576 44.1741 79.7446 44.5222 80.5952 44.5222C81.315 44.5222 82.1493 44.2165 83.1144 43.6052L83.5233 44.9552L80.448 47.0184L79.8101 47.0694C78.3706 47.0694 77.1928 46.4793 76.2604 45.2991C75.328 44.1189 74.8699 42.6203 74.8699 40.8033C74.8699 38.9014 75.3443 37.3009 76.2767 36.0018C77.2255 34.7027 78.3706 34.0532 79.7119 34.0532C80.8897 34.0532 81.8548 34.5244 82.6073 35.4669C83.3598 36.4094 83.736 37.6363 83.736 39.1476L82.6073 40.625ZM79.0249 35.9891C78.3542 36.4985 77.9125 37.4325 77.7162 38.791L81.1187 38.5617C81.0206 37.8316 80.7752 37.2202 80.399 36.7278C80.0064 36.2353 79.5483 35.9891 79.0249 35.9891Z" fill="white"/>
<path d="M88.218 40.6506V44.9553L90.5736 45.3884L90.5572 46.6874H83.7686L83.6378 45.8723C84.0467 45.5497 84.5865 45.2101 85.2245 44.8534V31.4552L83.785 31.2259L83.8013 29.9269L90.1319 29.7231C91.6532 29.7231 92.8801 30.2453 93.8125 31.2896C94.7612 32.334 95.2193 33.6543 95.2193 35.2505C95.2193 36.7619 94.7776 38.027 93.8943 39.0458C92.9946 40.0647 91.8495 40.5911 90.4591 40.6251L88.218 40.6506ZM88.218 32.092V38.3836C88.7415 38.5194 89.2486 38.5873 89.723 38.5873C90.5245 38.5873 91.1297 38.2605 91.5387 37.6067C91.9476 36.9529 92.1439 36.1505 92.1439 35.1996C92.1439 34.4694 92.0294 33.7731 91.8331 33.1109C91.6205 32.4486 91.326 31.9816 90.9498 31.7099L88.218 32.092Z" fill="white"/>
<path d="M105.034 45.4645L102.646 47.0947C102.335 47.0777 102.008 46.8952 101.664 46.547C101.321 46.1989 101.059 45.7702 100.863 45.2607L98.7199 47.0183L98.1146 47.0692C97.2804 47.0692 96.6097 46.7551 96.0699 46.1268C95.53 45.4985 95.2683 44.7428 95.2683 43.8598C95.2683 42.6371 95.7754 41.6692 96.7896 40.9559L100.552 40.8286V38.5616C100.552 37.2031 100.241 36.337 99.6196 35.9634C99.0143 36.0144 98.5236 36.1248 98.1473 36.2946L97.8038 39.0455L96.1516 39.122C95.8572 38.188 95.71 37.1606 95.71 36.0399L95.7263 35.5304C96.4624 35.1229 97.3131 34.762 98.3273 34.4479C99.3251 34.1337 100.094 33.9766 100.617 33.9766C101.108 33.9766 101.583 34.1464 102.041 34.4861C102.515 34.8257 102.891 35.2672 103.169 35.8106C103.316 36.1333 103.398 36.7785 103.415 37.7465V43.8598C103.415 44.2673 103.578 44.4711 103.905 44.4711L104.854 44.3182L105.034 45.4645ZM98.5236 44.8022C99.047 44.7852 99.7177 44.573 100.552 44.1654V42.3314L100.061 42.306C98.7526 42.306 98.1146 42.7645 98.1146 43.6814C98.1146 44.1399 98.2455 44.5135 98.5236 44.8022Z" fill="white"/>
<path fill-rule="evenodd" clip-rule="evenodd" d="M115.405 35.7088C115.045 35.9805 114.685 36.2012 114.309 36.371C113.524 39.9881 112.837 42.7985 112.264 44.8023C111.741 46.4325 111.07 47.8589 110.236 49.0816C109.418 50.3042 108.355 51.391 107.062 52.342L105.541 49.0051C107.275 48.3768 108.6 47.5617 109.533 46.5598C108.993 46.39 108.502 46.1098 108.06 45.7193L105.525 36.6512L104.2 35.9125V34.588H109.418L109.483 35.7088L108.453 36.371L109.565 41.2362L109.811 43.4523H110.17C110.727 41.1258 111.136 38.7824 111.414 36.422L110.399 35.9125L110.416 34.588H115.34L115.405 35.7088Z" fill="white"/>
</svg>

<svg xmlns="http://www.w3.org/2000/svg" width="116" height="59" fill="#000"><path d="M4.254 34.993s5.104 1.545 8.011 0C3.615 31.35.213 24.948.213 19.649c0-8.389 6.947-14.682 18.29-9.162 0 0 1.205-6.513 3.474-10.487l1.985.552-2.41 12.474-2.198 1.545C8.861 10.377 3.616 12.474 3.616 19.649c0 8.389 11.839 9.825 11.839 15.565 0 3.532-4.821 5.851-11.768 2.76l.567-2.98zM2.339 45.369l2.198-1.656c10.067 3.091 15.738-2.097 15.738-8.169 0-4.747-3.686-10.156-11.413-12.363l.638-2.98c9.216 1.987 14.887 7.948 14.887 15.013 0 10.818-8.507 15.234-18.999 12.253 0 0-.851 4.526-3.403 10.597L0 57.512l2.339-12.143z"/><path d="M40.207 42.077c0 1.511-.458 2.742-1.391 3.693-.916.951-2.078 1.426-3.484 1.426-.753 0-1.587-.149-2.47-.446s-1.62-.692-2.192-1.184l-.033-.713a24.4 24.4 0 0 1 .327-4.025h1.407l.965 3.566c.818.492 1.767.739 2.814.739.736-.442 1.08-1.155 1.08-2.14 0-.9-.409-1.656-1.276-2.267L33.01 38.79c-1.554-1.155-2.323-2.607-2.323-4.356 0-1.477.474-2.683 1.407-3.617.949-.934 2.159-1.401 3.631-1.401 1.309 0 2.601.306 3.893.917 0 1.8-.114 3.354-.344 4.661h-1.57l-.556-2.853c-.769-.509-1.685-.747-2.732-.713-.605.492-.916 1.18-.916 2.063 0 .509.18.972.523 1.388s1.063.938 2.127 1.567 1.848 1.167 2.355 1.617.916 1.002 1.227 1.656.474 1.439.474 2.356zm5.333 2.139c.36 0 .916-.11 1.652-.331l.213 1.248-3.026 1.961c-.556.034-1.096-.212-1.603-.739s-.769-1.121-.785-1.783v-7.361l-1.374.025-.082-1.325c.507-.459 1.031-.866 1.587-1.223l.982-3.311h1.341l.327 3.311h2.699l.033 1.095-.965 1.477h-1.701v5.782c0 .442.049.747.163.917.098.17.278.255.54.255z" fill-rule="evenodd"/><path d="M58.185 45.465l-2.405 1.63c-.311-.017-.638-.2-.965-.548a3.71 3.71 0 0 1-.818-1.286l-2.126 1.758-.622.051a2.53 2.53 0 0 1-2.028-.942c-.54-.628-.818-1.384-.818-2.267 0-1.223.523-2.191 1.538-2.904l3.746-.127v-2.267c0-1.358-.311-2.225-.916-2.598-.605.051-1.096.161-1.472.331l-.36 2.751-1.652.077c-.278-.934-.425-1.961-.425-3.082l.016-.51c.72-.407 1.587-.768 2.601-1.083.998-.314 1.767-.471 2.29-.471.491 0 .965.17 1.423.51a3.98 3.98 0 0 1 1.129 1.325c.147.323.213.968.229 1.936v6.113c0 .407.164.611.491.611l.965-.153.18 1.146zm-6.51-.662c.523-.017 1.194-.229 2.012-.637v-1.834l-.491-.025c-1.292 0-1.947.459-1.947 1.375 0 .459.147.832.425 1.121zm12.677-10.546l.703-.076c1.063 0 1.93.565 2.617 1.694.671 1.129 1.014 2.543 1.014 4.241 0 2.055-.507 3.744-1.538 5.069-1.014 1.325-2.339 1.987-3.959 1.987-1.194 0-2.486-.348-3.877-1.044v-15.87l-1.44-.204-.147-1.223c1.096-.543 2.257-.841 3.501-.891v.025l.949 1.121v7.132l2.176-1.961zm.016 10.724c.409-.425.753-1.019.998-1.783a8.3 8.3 0 0 0 .36-2.394c0-1.07-.196-1.982-.589-2.738-.376-.756-.883-1.133-1.521-1.133-.409 0-.883.195-1.439.586V44.6c.458.289.998.433 1.587.433l.605-.051z"/><path fill-rule="evenodd" d="M73.185 44.675c.605.255 1.096.509 1.423.764l-.082 1.248h-5.627l-.049-.866c.393-.289.883-.569 1.489-.841V30.258l-1.472-.204-.147-1.223c1.129-.56 2.29-.858 3.501-.891l.965 1.121v15.614z"/><path d="M82.607 40.625l-5.006-.076c.049 1.257.344 2.233.9 2.929s1.243 1.044 2.094 1.044c.72 0 1.554-.306 2.519-.917l.409 1.35-3.075 2.063-.638.051c-1.44 0-2.617-.59-3.55-1.77s-1.391-2.679-1.391-4.496c0-1.902.474-3.502 1.407-4.801.949-1.299 2.094-1.949 3.435-1.949 1.178 0 2.143.471 2.895 1.414s1.129 2.169 1.129 3.681l-1.129 1.477zm-3.582-4.636c-.671.509-1.112 1.443-1.309 2.802l3.403-.229c-.098-.73-.344-1.342-.72-1.834-.393-.492-.851-.739-1.374-.739zm9.193 4.662v4.305l2.356.433-.016 1.299h-6.789l-.131-.815c.409-.323.949-.662 1.587-1.019V31.455l-1.44-.229.016-1.299 6.331-.204c1.521 0 2.748.522 3.681 1.567.949 1.044 1.407 2.365 1.407 3.961 0 1.511-.442 2.776-1.325 3.795-.9 1.019-2.045 1.545-3.435 1.579l-2.241.025zm0-8.559v6.292c.523.136 1.031.204 1.505.204.802 0 1.407-.327 1.816-.981s.605-1.456.605-2.407c0-.73-.115-1.426-.311-2.089-.213-.662-.507-1.129-.883-1.401l-2.732.382zm16.816 13.373l-2.388 1.63c-.311-.017-.638-.2-.982-.548s-.605-.777-.801-1.286l-2.143 1.758-.605.051c-.834 0-1.505-.314-2.045-.942s-.802-1.384-.802-2.267c0-1.223.507-2.191 1.521-2.904l3.762-.127v-2.267c0-1.358-.311-2.225-.932-2.598-.605.051-1.096.161-1.472.331l-.344 2.751-1.652.077c-.294-.934-.442-1.961-.442-3.082l.016-.51c.736-.407 1.587-.768 2.601-1.083.998-.314 1.767-.471 2.29-.471.491 0 .966.17 1.424.51.474.34.85.781 1.128 1.325.147.323.229.968.246 1.936v6.113c0 .407.163.611.49.611l.949-.153.18 1.146zm-6.51-.662c.523-.017 1.194-.229 2.028-.637v-1.834l-.491-.025c-1.308 0-1.946.459-1.946 1.375 0 .459.131.832.409 1.121z"/><path fill-rule="evenodd" d="M115.405 35.709a5.74 5.74 0 0 1-1.096.662l-2.045 8.431c-.523 1.63-1.194 3.057-2.028 4.279-.818 1.223-1.881 2.309-3.174 3.26l-1.521-3.337c1.734-.628 3.059-1.443 3.992-2.445-.54-.17-1.031-.45-1.473-.841l-2.535-9.068-1.325-.739v-1.325h5.218l.065 1.121-1.03.662 1.112 4.865.246 2.216h.359c.557-2.327.966-4.67 1.244-7.03l-1.015-.509.017-1.325h4.924l.065 1.121z"/></svg>
